X:1
T:8. Dance Song: TIle Lovers Bill alld Coo
T:13. A swim in the River
T:For Children Nr 13 , Sz 42 
T:Béla Bartók Revised and Arranged by the Composer, January 1945 
T:Book 2 (after Slovakian Folksongs)
T:14. Ploughing a Field
%%score { 1 | ( 2 3 ) }
L:1/8
Q:1/4=120
M:2/4
K:C
V:1 treble nm="Piano" snm="Pno."
V:2 bass 
V:3 bass 
V:1
"^Allegro"!f! (!^!!5!g2 !2!d).!1!d | (!2!defd) | (!^!!4!e2 !2!c)!1!c | (!2!cd_ec) | %4
!>(! (!>!!5!d2 _B2 | A2 G2)!>)! |!f! (!^!g2 d).d | (defd) | (!^!e2 c).c | (cd_ec) |!>(! (d2 _B2 | %11
 A2 G2)!>)! | x !2!^Fx!2!A | x .Ax.A | !5!d2 !tenuto!!2!!4![G_B]2 | %15
 !tenuto!!1!!3![FA]2 !tenuto!!2!!4![_EG]2 |!<(! (!1!D!3!^F .!1!A) .!2!A | x .!2!Ax.!2!A!<)! | %18
"_poco rit."[Q:1/4=100]"^T" !5!d2 !tenuto!!1!!5![D_B]2 | %19
 !tenuto!!1!!5![CA]2 !tenuto!!1!!5![_B,G]2 :|[M:2/4][Q:1/4=102]"^Moderato"!f! (!1!DE^FG) | %21
 !tenuto!.A !tenuto!.G3 | !breath!!fermata!A4 |!p!"_poco capricioso" (!2!AB^cd) | (cB) !tenuto!c2 | %25
 (!3!_B.A)(G.A) | .!^!F.!2!E !tenuto!!1!D2 | %27
!mf!"^con sentimento" !tenuto!!3!G!<(!!tenuto!_B!tenuto!A!tenuto!G | %28
 !tenuto!^F!<)!!>(! !tenuto!G3 | !fermata!D4!>)! | (D!f!E^FG) | !tenuto!A !tenuto!G3 | %32
 !breath!!fermata!A4 |!p!"_poco capricioso" (AB^cd) | (c.B) !tenuto!c2 | (_B.A)(G.A) | %36
 .F.E !tenuto!D2 |"^ritard."[Q:1/4=80]"^T""_cresc." !tenuto!G!tenuto!_B!tenuto!A!tenuto!G | %38
!f! !tenuto!^F !tenuto!G3 | !fermata!D4 |] %40
V:2
 (!>!!3!_B,G, z A,) | (!>!=B,G, z B,) | (!>!CG, z C) | (!>!!1!^FG, z !2!_E) | (!1!DG,DG, | %5
 CG,) z A, | (_B,G, z A,) | (=B,G, z B,) | (CG, z C) | (^FG, z _E) | (DG,DG, | CG,_B,)!^!G,- | %12
 (!^!!2
4

!!1
![G,A,CD]x!<(![I:staff -1].A)[I:staff +1] x | %13
[I:staff -1] .A[I:staff +1]x[I:staff -1].A!<)![I:staff +1] x | z2 !3!!1![G,D]2 | %15
 !4!!1![_E,C]2 !5!!1![C,_B,]2 | !^!!5!!3!!1![D,^F,A,]2 z2 | %17
[I:staff -1] .!1!A[I:staff +1]x[I:staff -1].!1!A[I:staff +1] x | z2 !tenuto![G,,D,]2 | %19
 !tenuto![G,,D,]2 !tenuto![G,,D,]2 :|[M:2/4] !tenuto!!4!!2![D,^F,]4 | ([C,E,]4 | %22
 !fermata![D,^F,]4) | z2 !arpeggio!!5!!3!!1![G,_B,E]2 | z2 !tenuto!!4!!2!!1![A,CF]2 | %25
 z2 !arpeggio!!5!!3!!1![C,E,_B,]2 | z2 !tenuto!!4!!2!!1![D,F,A,]2 | (!3!D,4- | D,2 E,2) | %29
 !fermata!!3!!1![D,^F,]4 | z4 | !5!!4!!2![A,CE]4 | !fermata!!3!!1![D^F]4 | %33
 z2 !arpeggio!.!5!!3!!1![G,B,F]2 | z2 !tenuto!!4!!2!!1![A,CE]2 | z2 !5!!3![A,,^C,]2 | %36
 z2 !tenuto!!4!!1![_B,,F,]2 | z4 | !5!!3!!1![C,E,_B,]4 | !fermata!!4!!2!!1![D,^F,A,]4 |] %40
V:3
 x4 | x4 | x4 | x4 | x4 | x4 | x4 | x4 | x4 | x4 | x4 | x4 | x4 | x4 | x4 | x4 | x4 | x4 | x4 | %19
 x4 :|[M:2/4] x4 | x4 | x4 | x4 | x4 | x4 | x4 | !5!_B,,4- | B,,4 | x4 | x4 | x4 | x4 | x4 | x4 | %35
 x4 | x4 | x4 | x4 | x4 |] %40

